X:13398
T:Polska
S:Falun festival tape
R:Polska
O:Sweden
M:3/4
K:C
E>FD3E|^C>ED3 e|f>ga2f>a|g2e4::\
f>ga2f>a|g>e^c2e>g|
f>ed2B>d|^c2A3 e|\
f>ga2f>a|g>e^c2 a2|g<b a>f d>e|^c2d4|]


